X: 1
T:Waltz of the Toys
N:Modified by Rod Cameron from ideas by John Gallegher
Q:200
M:3/4
K:D
de|:"D" {e}f2 fg fe|"D" dB AF Ad|"D" {e}f2 fg fe|"D" dB AF Ad|"A" e2ef ed|"A" c2 cd cB|"A" A2 BA cA|1"D" dA FA de:|2"D" d4 dc|:"D" dA FA GA|"G" {A}B2 B2 Bd|"A" cA Bc de|"D" f2 f2 ff|"Bm" bf df bf|"Em" f<g gf ed|"A" ce Ae ae|"D" f2 fe dc|"Bm" BF FF BF|"G" g2 Ge ed|"A" cB AG FE|"F#" F2 FD EF|"G" GF GA Bc|"D" de f2 ef|"A7" g/f/e cA BA|1"D" d4 de:|2"D"d6||
